X:1
T:Title
%%score { ( 1 3 ) | 2 }
L:1/8
Q:1/4=82
M:2/4
K:Eb
V:1 treble nm="Grand Piano"
V:3 treble 
V:2 bass 
V:1
 GG G2 | GG G2 | GG GG | AB B2 | [DA][CDA] [B,DA]2 | [DA][CDA] [B,DA]2 | [DA][CDA] [DFA][CFA] | %7
w: C.~A.~Havens * *|||||||
 [C_G=A][B,=GB] [B,GB]2 | GG G2 | GG G2 | GG G[GB] | [GB][FA] [FA]2 | [Ac][Ae] [Ae][Ac] | %13
w: ||||||
 e[EB] [EB]2 | [EG][DA] [DA]<D | FE E2 | [Ge]e dc | BG G2 | [Ge]e dc |[M:9/16] cF/-F/ z/ D<D | %20
w: |||||||
[M:2/4] GG G2 | GG G2 | GG G[GB] | [GB][FA] [FA]2 | [Ac][Ae] [Ae][Ac] | e[EB] [EB]2 | %26
w: ||||||
 [EG][DA] [DA]<D |[M:6/4] FE .E4 z6 |] %28
w: ||
V:2
 [E,G,E][E,CE] [E,B,E]2 | [E,G,E][E,CE] [E,B,E]2 | [E,G,E][E,B,E] [E,CE][E,B,E] | %3
 [F,B,D][F,A,D] [F,A,D]2 | [B,,F,]B,, B,,2 | [B,,F,]B,, B,,2 | [B,,F,]B,, B,,B,, | E,E, E,2 | %8
 [E,G,E][E,CE] [E,B,E]2 | [E,G,E][E,CE] [E,B,E]2 | [E,G,E][E,B,E] [E,B,E][=E,_D] | %11
 [F,C][F,C] [F,C]2 | [F,E][F,C] [F,C][F,E] | [B,G][B,,G,] [B,,G,]2 | %14
 [B,,G,][B,,F,] [B,,F,]<[B,,A,B,] | [E,A,B,][E,G,B,] [E,G,B,]2 | %16
 [E,B,][K:treble][G,B,E] [A,=B,F][K:bass][A,CE] | [G,E][E,B,E] [E,B,E]2 | %18
 [E,B,][K:treble][G,B,E] [A,=B,F][A,CE] |[M:9/16] [=A,EF][A,E]/-[A,E]/[K:bass][B,D]/B,<[B,,A,] | %20
[M:2/4] [E,G,E][E,CE] [E,B,E]2 | [E,G,E][E,CE] [E,B,E]2 | [E,G,E][E,B,E] [E,B,E][=E,_D] | %23
 [F,C][F,C] [F,C]2 | [F,E][F,C] [F,C][F,E] | [B,G][B,,G,] [B,,G,]2 | %26
 [B,,G,][B,,F,] [B,,F,]<[B,,A,B,] |[M:6/4] [E,A,B,][E,G,B,] .[E,G,B,]4 z6 |] %28
V:3
 x4 | x4 | x4 | x4 | x4 | x4 | x4 | x4 | x4 | x4 | x4 | x4 | x4 | x4 | x4 | x4 | x4 | x4 | x4 | %19
[M:9/16] z3/2 z/ F-F3/2 |[M:2/4] x4 | x4 | x4 | x4 | x4 | x4 | x4 |[M:6/4] x12 |] %28

